X:5
T:Polska ur Petter Dufvas notbok (Ma6-5)
R:Polska
O:Verkelbäck, Småland
B:Petter Dufvas notbok
S:Petter Dufva
N:Smus Ma6 bild 8
Z:Till abc Jonas Brunskog
M:3/4
L:1/8
K:C
CC EC/E/ GE/G/|GG c2 d2|ed/e/ f2 dc|B/c/B/A/ G/A/G/F/ E/F/E/D/|
CC EC/E/ GE/G/|GG c2 d2|ed/e/ f2 dc|B/c/d/B/ c4:|
|:ge ag fe|dd/e/ f4|ed/e/ fe dc|B/c/d/B/ G4|
CC EC/E/ GE/G/|GG c2 d2|ed/e/ fe dc|B/c/d/B/ c4:|

